X:1
T: The Last Pint of Ale
C:
R:Reel
Q: 232
K:D
M:4/4
L:1/8
|:f|de fd gf ed|B1/2c1/2d AF GE =CE|de fd gf ed|B1/2c1/2d AF A3f|
de fd gf ed|B1/2c1/2d AF GE =CE|de fd gf ed|B1/2c1/2d AF A3F|
D2 DF E2 Ec|B1/2c1/2d AF GE =CE|D2 DF E2 Ec|B1/2c1/2d AF A3F|
D2 DF E2 Ec|B1/2c1/2d AF GE =CE|D2 DF E2 Ec|B1/2c1/2d AF A3:|
